;FLAVOR:UltiGCode
;TIME:2906
;MATERIAL:2815
;MATERIAL2:0
;NOZZLE_DIAMETER:0.000000
;NOZZLE_DIAMETER2:0.000000

;Layer count: 377
;LAYER:0
M107
G0 F9000 X95.584 Y118.287 Z0.300
;TYPE:SKIRT
G1 F1200 X96.762 Y117.351 E0.18055
G1 X97.707 Y116.753 E0.31475
G1 X99.083 Y116.091 E0.49798
G1 X100.537 Y115.640 E0.68066
G1 X101.518 Y115.456 E0.80044
G1 X102.345 Y115.365 E0.90028
G1 X103.160 Y115.336 E0.99814
G1 X104.123 Y115.371 E1.11377
G1 X105.665 Y115.600 E1.30084
G1 X107.308 Y116.122 E1.50772
G1 X108.792 Y116.846 E1.70586
G1 X110.074 Y117.738 E1.89327
G1 X110.753 Y118.332 E2.00153
G1 X111.353 Y118.933 E2.10344
G1 X112.008 Y119.706 E2.22502
G1 X112.847 Y120.951 E2.40518
G1 X113.512 Y122.366 E2.59280
G1 X113.797 Y123.206 E2.69924
G1 X114.019 Y124.023 E2.80084
G1 X114.184 Y124.939 E2.91252
G1 X114.264 Y125.781 E3.01402
G1 X114.285 Y126.506 E3.10106
G1 X114.248 Y127.474 E3.21730
G1 X114.021 Y128.960 E3.39769
G1 X113.512 Y130.590 E3.60260
G1 X112.871 Y131.904 E3.77805
G1 X112.253 Y132.898 E3.91850
G1 X111.244 Y134.129 E4.10950
G1 X110.156 Y135.127 E4.28667
G1 X109.228 Y135.799 E4.42416
G1 X107.940 Y136.530 E4.60188
G1 X106.370 Y137.135 E4.80378
G1 X104.899 Y137.464 E4.98466
G1 X103.914 Y137.566 E5.10350
G1 X103.169 Y137.590 E5.19294
G1 X102.170 Y137.556 E5.31289
G1 X100.615 Y137.313 E5.50176
G1 X99.059 Y136.827 E5.69737
G1 X98.305 Y136.462 E5.79790
G1 X97.763 Y136.236 E5.86836
G1 X96.209 Y135.177 E6.09403
G1 X94.982 Y134.038 E6.29493
G1 X93.952 Y132.742 E6.49358
G1 X93.119 Y131.306 E6.69280
G1 X92.509 Y129.749 E6.89346
G1 X92.167 Y128.257 E7.07715
G1 X92.060 Y127.278 E7.19533
G1 X92.031 Y126.465 E7.29295
G1 X92.066 Y125.500 E7.40882
G1 X92.290 Y123.985 E7.59260
G1 X92.786 Y122.388 E7.79327
G1 X93.504 Y120.894 E7.99218
G1 X94.445 Y119.514 E8.19262
G1 X95.584 Y118.287 E8.39352
G0 F9000 X95.857 Y118.581
G1 F1200 X96.994 Y117.678 E8.56775
G1 X97.901 Y117.103 E8.69662
G1 X99.229 Y116.464 E8.87347
G1 X100.633 Y116.029 E9.04985
G1 X101.577 Y115.852 E9.16510
G1 X102.374 Y115.765 E9.26131
G1 X103.160 Y115.736 E9.35570
G1 X104.086 Y115.770 E9.46689
G1 X105.574 Y115.991 E9.64741
G1 X107.159 Y116.494 E9.84696
G1 X108.589 Y117.191 E10.03786
G1 X109.827 Y118.054 E10.21895
G1 X110.479 Y118.624 E10.32287
G1 X111.059 Y119.204 E10.42130
G1 X111.688 Y119.948 E10.53821
G1 X112.498 Y121.149 E10.71205
G1 X113.140 Y122.516 E10.89328
G1 X113.414 Y123.323 E10.99555
G1 X113.629 Y124.111 E11.09356
G1 X113.788 Y124.993 E11.20111
G1 X113.865 Y125.806 E11.29911
G1 X113.885 Y126.504 E11.38290
G1 X113.850 Y127.437 E11.49494
G1 X113.630 Y128.870 E11.66891
G1 X113.139 Y130.442 E11.86654
G1 X112.521 Y131.710 E12.03581
G1 X111.927 Y132.665 E12.17077
G1 X110.953 Y133.854 E12.35521
G1 X109.902 Y134.817 E12.52627
G1 X109.011 Y135.462 E12.65826
G1 X107.768 Y136.167 E12.82974
G1 X106.254 Y136.751 E13.02447
G1 X104.835 Y137.068 E13.19895
G1 X103.887 Y137.166 E13.31332
G1 X103.169 Y137.190 E13.39952
G1 X102.208 Y137.157 E13.51491
G1 X100.706 Y136.922 E13.69734
G1 X99.207 Y136.454 E13.88579
G1 X98.473 Y136.099 E13.98363
G1 X97.954 Y135.883 E14.05109
G1 X96.459 Y134.864 E14.26820
G1 X95.276 Y133.765 E14.46196
G1 X94.283 Y132.516 E14.65344
G1 X93.480 Y131.132 E14.84545
G1 X92.892 Y129.631 E15.03890
G1 X92.563 Y128.191 E15.21615
G1 X92.460 Y127.249 E15.32986
G1 X92.431 Y126.465 E15.42401
G1 X92.465 Y125.536 E15.53556
G1 X92.682 Y124.074 E15.71292
G1 X93.159 Y122.534 E15.90638
G1 X93.852 Y121.094 E16.09815
G1 X94.758 Y119.764 E16.29127
G1 X95.857 Y118.581 E16.48503
G0 F9000 X96.129 Y118.875
G1 F1200 X97.226 Y118.004 E16.65312
G1 X98.096 Y117.453 E16.77670
G1 X99.376 Y116.837 E16.94716
G1 X100.730 Y116.418 E17.11724
G1 X101.635 Y116.248 E17.22774
G1 X102.403 Y116.164 E17.32045
G1 X103.160 Y116.136 E17.41135
G1 X104.050 Y116.169 E17.51822
G1 X105.484 Y116.382 E17.69219
G1 X107.010 Y116.867 E17.88434
G1 X108.386 Y117.537 E18.06799
G1 X109.580 Y118.370 E18.24269
G1 X110.206 Y118.916 E18.34237
G1 X110.764 Y119.475 E18.43715
G1 X111.369 Y120.190 E18.54955
G1 X112.149 Y121.347 E18.71699
G1 X112.769 Y122.666 E18.89189
G1 X113.032 Y123.440 E18.98998
G1 X113.238 Y124.199 E19.08436
G1 X113.391 Y125.048 E19.18788
G1 X113.465 Y125.831 E19.28226
G1 X113.485 Y126.503 E19.36293
G1 X113.451 Y127.399 E19.47053
G1 X113.240 Y128.779 E19.63805
G1 X112.767 Y130.294 E19.82851
G1 X112.170 Y131.516 E19.99171
G1 X111.601 Y132.431 E20.12101
G1 X110.662 Y133.578 E20.29889
G1 X109.649 Y134.506 E20.46375
G1 X108.795 Y135.125 E20.59032
G1 X107.597 Y135.804 E20.75556
G1 X106.138 Y136.367 E20.94323
G1 X104.770 Y136.673 E21.11144
G1 X103.859 Y136.767 E21.22134
G1 X103.169 Y136.790 E21.30419
G1 X102.246 Y136.758 E21.41502
G1 X100.797 Y136.532 E21.59100
G1 X99.354 Y136.081 E21.77242
G1 X98.633 Y135.732 E21.86854
G1 X98.146 Y135.529 E21.93186
G1 X96.709 Y134.550 E22.14051
G1 X95.570 Y133.493 E22.32698
G1 X94.615 Y132.290 E22.51130
G1 X93.841 Y130.957 E22.69627
G1 X93.276 Y129.513 E22.88234
G1 X92.958 Y128.124 E23.05333
G1 X92.859 Y127.220 E23.16246
G1 X92.831 Y126.465 E23.25312
G1 X92.864 Y125.573 E23.36023
G1 X93.073 Y124.163 E23.53128
G1 X93.532 Y122.681 E23.71746
G1 X94.199 Y121.295 E23.90203
G1 X95.072 Y120.014 E24.08806
G1 X96.129 Y118.875 E24.27452
G0 F9000 X96.402 Y119.170
G1 F1200 X97.458 Y118.331 E24.43637
G1 X98.290 Y117.804 E24.55455
G1 X99.523 Y117.211 E24.71874
G1 X100.826 Y116.807 E24.88244
G1 X101.694 Y116.644 E24.98842
G1 X102.432 Y116.563 E25.07751
G1 X103.159 Y116.537 E25.16481
G1 X104.013 Y116.568 E25.26736
G1 X105.393 Y116.772 E25.43476
G1 X106.861 Y117.239 E25.61961
G1 X108.183 Y117.883 E25.79608
G1 X109.334 Y118.685 E25.96442
G1 X109.932 Y119.209 E26.05983
G1 X110.470 Y119.746 E26.15105
G1 X111.049 Y120.431 E26.25868
G1 X111.800 Y121.545 E26.41990
G1 X112.397 Y122.816 E26.58841
G1 X112.649 Y123.556 E26.68221
G1 X112.848 Y124.287 E26.77313
G1 X112.994 Y125.102 E26.87248
G1 X113.066 Y125.856 E26.96337
G1 X113.085 Y126.501 E27.04081
G1 X113.052 Y127.361 E27.14408
G1 X112.849 Y128.689 E27.30529
G1 X112.394 Y130.146 E27.48846
G1 X111.820 Y131.322 E27.64549
G1 X111.275 Y132.198 E27.76930
G1 X110.370 Y133.303 E27.94069
G1 X109.396 Y134.196 E28.09926
G1 X108.578 Y134.788 E28.22043
G1 X107.425 Y135.442 E28.37950
G1 X106.022 Y135.983 E28.55994
G1 X104.706 Y136.277 E28.72176
G1 X103.832 Y136.368 E28.82720
G1 X103.169 Y136.390 E28.90681
G1 X102.284 Y136.359 E29.01307
G1 X100.888 Y136.141 E29.18262
G1 X99.502 Y135.708 E29.35687
G1 X98.786 Y135.362 E29.45230
G1 X98.337 Y135.175 E29.51066
G1 X96.959 Y134.237 E29.71070
G1 X95.865 Y133.220 E29.88994
G1 X94.946 Y132.064 E30.06715
G1 X94.203 Y130.783 E30.24486
G1 X93.659 Y129.395 E30.42376
G1 X93.353 Y128.058 E30.58834
G1 X93.258 Y127.191 E30.69301
G1 X93.232 Y126.464 E30.78030
G1 X93.263 Y125.610 E30.88285
G1 X93.464 Y124.253 E31.04747
G1 X93.906 Y122.828 E31.22650
G1 X94.547 Y121.495 E31.40400
G1 X95.385 Y120.264 E31.58270
G1 X96.402 Y119.170 E31.76194
G0 F9000 X96.674 Y119.464
G1 F1200 X97.690 Y118.657 E31.91764
G1 X98.484 Y118.154 E32.03043
G1 X99.670 Y117.584 E32.18833
G1 X100.923 Y117.195 E32.34577
G1 X101.753 Y117.040 E32.44710
G1 X102.461 Y116.962 E32.53257
G1 X103.159 Y116.937 E32.61638
G1 X103.976 Y116.967 E32.71449
G1 X105.303 Y117.163 E32.87546
G1 X106.712 Y117.612 E33.05291
G1 X107.980 Y118.229 E33.22213
G1 X109.087 Y119.001 E33.38408
G1 X109.659 Y119.501 E33.47525
G1 X110.175 Y120.017 E33.56282
G1 X110.730 Y120.673 E33.66593
G1 X111.451 Y121.743 E33.82076
G1 X112.026 Y122.966 E33.98293
G1 X112.266 Y123.673 E34.07253
G1 X112.457 Y124.375 E34.15983
G1 X112.598 Y125.157 E34.25518
G1 X112.666 Y125.880 E34.34233
G1 X112.684 Y126.499 E34.41664
G1 X112.653 Y127.323 E34.51559
G1 X112.458 Y128.598 E34.67037
G1 X112.021 Y129.998 E34.84636
G1 X111.469 Y131.129 E34.99738
G1 X110.949 Y131.965 E35.11553
G1 X110.079 Y133.027 E35.28027
G1 X109.143 Y133.885 E35.43264
G1 X108.361 Y134.451 E35.54848
G1 X107.254 Y135.079 E35.70121
G1 X105.905 Y135.599 E35.87470
G1 X104.641 Y135.882 E36.03013
G1 X103.805 Y135.968 E36.13098
G1 X103.169 Y135.990 E36.20735
G1 X102.322 Y135.961 E36.30905
G1 X100.979 Y135.751 E36.47217
G1 X99.649 Y135.335 E36.63939
G1 X98.973 Y135.007 E36.72956
G1 X98.529 Y134.822 E36.78728
G1 X97.209 Y133.923 E36.97892
G1 X96.159 Y132.948 E37.15087
G1 X95.277 Y131.838 E37.32100
G1 X94.564 Y130.609 E37.49150
G1 X94.042 Y129.276 E37.66329
G1 X93.748 Y127.991 E37.82147
G1 X93.657 Y127.162 E37.92155
G1 X93.632 Y126.464 E38.00536
G1 X93.662 Y125.646 E38.10359
G1 X93.855 Y124.342 E38.26177
G1 X94.279 Y122.975 E38.43352
G1 X94.894 Y121.696 E38.60383
G1 X95.699 Y120.514 E38.77544
G1 X96.674 Y119.464 E38.94738
G0 F9000 X96.947 Y119.759
G1 F1200 X97.922 Y118.984 E39.09684
G1 X98.679 Y118.504 E39.20440
G1 X99.816 Y117.957 E39.35581
G1 X101.019 Y117.584 E39.50695
G1 X101.811 Y117.436 E39.60364
G1 X102.490 Y117.361 E39.68561
G1 X103.159 Y117.337 E39.76594
G1 X103.939 Y117.366 E39.85961
G1 X105.212 Y117.554 E40.01402
G1 X106.563 Y117.984 E40.18416
G1 X107.777 Y118.575 E40.34618
G1 X108.840 Y119.316 E40.50168
G1 X109.386 Y119.793 E40.58868
G1 X109.880 Y120.288 E40.67260
G1 X110.410 Y120.915 E40.77112
G1 X111.102 Y121.941 E40.91962
G1 X111.654 Y123.116 E41.07541
G1 X111.884 Y123.790 E41.16087
G1 X112.066 Y124.463 E41.24453
G1 X112.201 Y125.211 E41.33574
G1 X112.267 Y125.905 E41.41939
G1 X112.284 Y126.497 E41.49046
G1 X112.254 Y127.285 E41.58509
G1 X112.067 Y128.508 E41.73356
G1 X111.648 Y129.850 E41.90227
G1 X111.119 Y130.935 E42.04712
G1 X110.623 Y131.731 E42.15966
G1 X109.788 Y132.752 E42.31794
G1 X108.889 Y133.575 E42.46420
G1 X108.145 Y134.114 E42.57444
G1 X107.082 Y134.717 E42.72110
G1 X105.789 Y135.215 E42.88737
G1 X104.577 Y135.486 E43.03640
G1 X103.778 Y135.569 E43.13280
G1 X103.169 Y135.589 E43.20592
G1 X102.360 Y135.562 E43.30305
G1 X101.070 Y135.360 E43.45974
G1 X99.797 Y134.962 E43.61979
G1 X99.137 Y134.642 E43.70781
G1 X98.720 Y134.468 E43.76203
G1 X97.459 Y133.609 E43.94512
G1 X96.454 Y132.675 E44.10976
G1 X95.609 Y131.612 E44.27271
G1 X94.925 Y130.434 E44.43618
G1 X94.425 Y129.158 E44.60063
G1 X94.143 Y127.924 E44.75253
G1 X94.056 Y127.133 E44.84802
G1 X94.032 Y126.464 E44.92835
G1 X94.060 Y125.683 E45.02213
G1 X94.246 Y124.431 E45.17402
G1 X94.652 Y123.121 E45.33860
G1 X95.242 Y121.896 E45.50176
G1 X96.013 Y120.764 E45.66611
G1 X96.947 Y119.759 E45.83075
G0 F9000 X97.219 Y120.053
G1 F1200 X98.154 Y119.310 E45.97407
G1 X98.873 Y118.855 E46.07617
G1 X99.963 Y118.331 E46.22130
G1 X101.116 Y117.973 E46.36618
G1 X101.870 Y117.831 E46.45825
G1 X102.519 Y117.761 E46.53658
G1 X103.159 Y117.737 E46.61343
G1 X103.903 Y117.764 E46.70277
G1 X105.122 Y117.945 E46.85066
G1 X106.414 Y118.356 E47.01335
G1 X107.574 Y118.921 E47.16818
G1 X108.594 Y119.632 E47.31739
G1 X109.112 Y120.086 E47.40004
G1 X109.586 Y120.559 E47.48040
G1 X110.091 Y121.156 E47.57423
G1 X110.754 Y122.139 E47.71651
G1 X111.283 Y123.266 E47.86591
G1 X111.501 Y123.907 E47.94716
G1 X111.676 Y124.551 E48.02724
G1 X111.804 Y125.266 E48.11440
G1 X111.868 Y125.930 E48.19445
G1 X111.884 Y126.495 E48.26228
G1 X111.855 Y127.247 E48.35259
G1 X111.676 Y128.418 E48.49474
G1 X111.276 Y129.701 E48.65601
G1 X110.768 Y130.741 E48.79490
G1 X110.297 Y131.498 E48.90189
G1 X109.496 Y132.476 E49.05359
G1 X108.636 Y133.264 E49.19356
G1 X107.928 Y133.777 E49.29848
G1 X106.910 Y134.354 E49.43890
G1 X105.673 Y134.832 E49.59803
G1 X104.513 Y135.091 E49.74066
G1 X103.750 Y135.170 E49.83271
G1 X103.170 Y135.189 E49.90235
G1 X102.398 Y135.163 E49.99504
G1 X101.161 Y134.969 E50.14529
G1 X99.945 Y134.589 E50.29817
G1 X99.303 Y134.278 E50.38378
G1 X98.912 Y134.115 E50.43461
G1 X97.710 Y133.296 E50.60915
G1 X96.748 Y132.403 E50.76666
G1 X95.940 Y131.386 E50.92253
G1 X95.287 Y130.260 E51.07873
G1 X94.809 Y129.040 E51.23596
G1 X94.538 Y127.858 E51.38148
G1 X94.456 Y127.104 E51.47250
G1 X94.432 Y126.464 E51.54935
G1 X94.459 Y125.720 E51.63869
G1 X94.637 Y124.520 E51.78426
G1 X95.026 Y123.268 E51.94159
G1 X95.589 Y122.096 E52.09761
G1 X96.326 Y121.015 E52.25461
G1 X97.219 Y120.053 E52.41213
G0 F9000 X97.492 Y120.347
G1 F1200 X98.386 Y119.637 E52.54912
G1 X99.068 Y119.205 E52.64600
G1 X100.110 Y118.704 E52.78474
G1 X101.212 Y118.362 E52.92320
G1 X101.929 Y118.227 E53.01075
G1 X102.548 Y118.160 E53.08547
G1 X103.159 Y118.138 E53.15884
G1 X103.866 Y118.163 E53.24373
G1 X105.031 Y118.336 E53.38506
G1 X106.265 Y118.729 E53.54047
G1 X107.370 Y119.267 E53.68795
G1 X108.347 Y119.948 E53.83086
G1 X108.839 Y120.378 E53.90927
G1 X109.291 Y120.830 E53.98598
G1 X109.771 Y121.398 E54.07522
G1 X110.405 Y122.337 E54.21118
G1 X110.911 Y123.416 E54.35419
G1 X111.118 Y124.024 E54.43126
G1 X111.285 Y124.639 E54.50773
G1 X111.408 Y125.320 E54.59078
G1 X111.468 Y125.955 E54.66732
G1 X111.484 Y126.494 E54.73202
G1 X111.457 Y127.209 E54.81789
G1 X111.285 Y128.327 E54.95362
G1 X110.903 Y129.553 E55.10772
G1 X110.418 Y130.547 E55.24044
G1 X109.971 Y131.265 E55.34193
G1 X109.205 Y132.201 E55.48707
G1 X108.383 Y132.954 E55.62084
G1 X107.711 Y133.440 E55.72036
G1 X106.739 Y133.992 E55.85450
G1 X105.557 Y134.448 E56.00653
G1 X104.448 Y134.695 E56.14287
G1 X103.723 Y134.770 E56.23033
G1 X103.170 Y134.789 E56.29673
G1 X102.436 Y134.764 E56.38486
G1 X101.252 Y134.579 E56.52867
G1 X100.092 Y134.216 E56.67452
G1 X99.454 Y133.907 E56.75959
G1 X99.103 Y133.761 E56.80521
G1 X97.960 Y132.982 E56.97120
G1 X97.042 Y132.130 E57.12149
G1 X96.271 Y131.160 E57.27018
G1 X95.648 Y130.086 E57.41917
G1 X95.192 Y128.922 E57.56919
G1 X94.933 Y127.791 E57.70842
G1 X94.855 Y127.075 E57.79485
G1 X94.833 Y126.464 E57.86822
G1 X94.858 Y125.756 E57.95323
G1 X95.029 Y124.609 E58.09239
G1 X95.399 Y123.415 E58.24239
G1 X95.937 Y122.297 E58.39128
G1 X96.640 Y121.265 E58.54112
G1 X97.492 Y120.347 E58.69142
G0 F9000 X97.764 Y120.642
G1 F1200 X98.618 Y119.963 E58.82234
G1 X99.262 Y119.556 E58.91376
G1 X100.257 Y119.077 E59.04628
G1 X101.309 Y118.751 E59.17844
G1 X101.988 Y118.623 E59.26135
G1 X102.577 Y118.559 E59.33245
G1 X103.159 Y118.538 E59.40233
G1 X103.829 Y118.562 E59.48279
G1 X104.940 Y118.727 E59.61757
G1 X106.116 Y119.101 E59.76565
G1 X107.167 Y119.613 E59.90594
G1 X108.100 Y120.263 E60.04239
G1 X108.566 Y120.670 E60.11664
G1 X108.996 Y121.101 E60.18970
G1 X109.452 Y121.640 E60.27442
G1 X110.056 Y122.535 E60.40399
G1 X110.540 Y123.565 E60.54055
G1 X110.735 Y124.141 E60.61353
G1 X110.895 Y124.728 E60.68654
G1 X111.011 Y125.375 E60.76542
G1 X111.069 Y125.979 E60.83823
G1 X111.084 Y126.492 E60.89982
G1 X111.058 Y127.171 E60.98136
G1 X110.895 Y128.237 E61.11076
G1 X110.530 Y129.405 E61.25761
G1 X110.067 Y130.353 E61.38421
G1 X109.645 Y131.031 E61.48004
G1 X108.914 Y131.925 E61.61862
G1 X108.129 Y132.643 E61.74628
G1 X107.495 Y133.103 E61.84028
G1 X106.567 Y133.629 E61.96828
G1 X105.441 Y134.064 E62.11313
G1 X104.384 Y134.300 E62.24310
G1 X103.696 Y134.371 E62.32609
G1 X103.170 Y134.389 E62.38925
G1 X102.473 Y134.365 E62.47294
G1 X101.343 Y134.188 E62.61019
G1 X100.240 Y133.843 E62.74888
G1 X99.620 Y133.543 E62.83153
G1 X99.295 Y133.408 E62.87376
G1 X98.210 Y132.669 E63.03129
G1 X97.337 Y131.858 E63.17428
G1 X96.603 Y130.934 E63.31589
G1 X96.009 Y129.911 E63.45784
G1 X95.575 Y128.804 E63.60053
G1 X95.328 Y127.725 E63.73336
G1 X95.254 Y127.046 E63.81532
G1 X95.233 Y126.464 E63.88520
G1 X95.257 Y125.793 E63.96577
G1 X95.420 Y124.698 E64.09862
G1 X95.772 Y123.562 E64.24134
G1 X96.284 Y122.497 E64.38314
G1 X96.953 Y121.515 E64.52573
G1 X97.764 Y120.642 E64.66871
G0 F9000 X98.037 Y120.936
G1 F1200 X98.850 Y120.290 E64.79332
G1 X99.456 Y119.906 E64.87941
G1 X100.403 Y119.450 E65.00554
G1 X101.405 Y119.140 E65.13141
G1 X102.046 Y119.019 E65.20968
G1 X102.606 Y118.958 E65.27728
G1 X103.159 Y118.938 E65.34368
G1 X103.793 Y118.961 E65.41981
G1 X104.850 Y119.118 E65.54805
G1 X105.967 Y119.473 E65.68869
G1 X106.964 Y119.959 E65.82179
G1 X107.853 Y120.579 E65.95185
G1 X108.292 Y120.963 E66.02184
G1 X108.702 Y121.372 E66.09134
G1 X109.132 Y121.881 E66.17129
G1 X109.707 Y122.733 E66.29464
G1 X110.168 Y123.715 E66.42482
G1 X110.353 Y124.258 E66.49366
G1 X110.504 Y124.816 E66.56302
G1 X110.615 Y125.429 E66.63778
G1 X110.669 Y126.004 E66.70708
G1 X110.683 Y126.490 E66.76543
